Source Code/mun/assets/flags/NOR.svg

<svg viewBox="0 0 40.5 40.5" xmlns="http://www.w3.org/2000/svg"><path d="m40.5 20.25a19.35 19.35 0 0 1 -.16 2.54 20.18 20.18 0 0 1 -20.09 17.71h-3.71v-.34a19.67 19.67 0 0 1 -5.08-1.67 19.24 19.24 0 0 1 -2.46-1.43 20.11 20.11 0 0 1 -8.84-14.27 20.24 20.24 0 0 1 0-5.08 20.11 20.11 0 0 1 8.84-14.27 19.24 19.24 0 0 1 2.46-1.44 19.67 19.67 0 0 1 5.08-1.66v-.34h3.71a20.18 20.18 0 0 1 20.09 17.71 19.35 19.35 0 0 1 .16 2.54z" fill="#ef2b2d"/><path d="m19 0v40.5h-2.46v-.34a19.67 19.67 0 0 1 -5.08-1.67 19.24 19.24 0 0 1 -2.46-1.43v-33.62a19.24 19.24 0 0 1 2.46-1.44 19.67 19.67 0 0 1 5.08-1.66v-.34z" fill="#fff"/><path d="m40.5 20.25a19.35 19.35 0 0 1 -.16 2.54 20.43 20.43 0 0 1 -.47 2.5h-39.24a20.43 20.43 0 0 1 -.47-2.5 20.24 20.24 0 0 1 0-5.08 20.43 20.43 0 0 1 .47-2.5h39.24a20.43 20.43 0 0 1 .47 2.5 19.35 19.35 0 0 1 .16 2.54z" fill="#fff"/><g fill="#002868"><path d="m16.54.34v39.82a19.67 19.67 0 0 1 -5.08-1.67v-36.49a19.67 19.67 0 0 1 5.08-1.66z"/><path d="m40.5 20.25a19.35 19.35 0 0 1 -.16 2.54h-40.18a20.24 20.24 0 0 1 0-5.08h40.18a19.35 19.35 0 0 1 .16 2.54z"/></g></svg>

<svg xmlns="http://www.w3.org/2000/svg" viewBox="0 0 40.5 40.5"><defs><style>.cls-1{fill:#ef2b2d;}.cls-2{fill:#fff;}.cls-3{fill:#002868;}</style></defs><title>NOR</title><g id="Layer_2" data-name="Layer 2"><g id="Ñëîé_1" data-name="Ñëîé 1"><path class="cls-1" d="M40.5,20.25a19.35,19.35,0,0,1-.16,2.54A20.18,20.18,0,0,1,20.25,40.5H16.54v-.34a19.67,19.67,0,0,1-5.08-1.67A19.24,19.24,0,0,1,9,37.06,20.11,20.11,0,0,1,.16,22.79a20.24,20.24,0,0,1,0-5.08A20.11,20.11,0,0,1,9,3.44,19.24,19.24,0,0,1,11.46,2,19.67,19.67,0,0,1,16.54.34V0h3.71A20.18,20.18,0,0,1,40.34,17.71,19.35,19.35,0,0,1,40.5,20.25Z"/><path class="cls-2" d="M19,0V40.5H16.54v-.34a19.67,19.67,0,0,1-5.08-1.67A19.24,19.24,0,0,1,9,37.06V3.44A19.24,19.24,0,0,1,11.46,2,19.67,19.67,0,0,1,16.54.34V0Z"/><path class="cls-2" d="M40.5,20.25a19.35,19.35,0,0,1-.16,2.54,20.43,20.43,0,0,1-.47,2.5H.63a20.43,20.43,0,0,1-.47-2.5,20.24,20.24,0,0,1,0-5.08,20.43,20.43,0,0,1,.47-2.5H39.87a20.43,20.43,0,0,1,.47,2.5A19.35,19.35,0,0,1,40.5,20.25Z"/><path class="cls-3" d="M16.54.34V40.16a19.67,19.67,0,0,1-5.08-1.67V2A19.67,19.67,0,0,1,16.54.34Z"/><path class="cls-3" d="M40.5,20.25a19.35,19.35,0,0,1-.16,2.54H.16a20.24,20.24,0,0,1,0-5.08H40.34A19.35,19.35,0,0,1,40.5,20.25Z"/></g></g></svg>
